X: 4075
M: C|
L: 1/8
K: D
uA |\
(D/E/F/G/) AF BGAF | E=ccE G2-G ::\
g |\
fddf Afdg |
fddf a2(ab) |\
[1 fddf Afde | =cdef g3 :|\
[2 afge fdAF | E=ccE G2-G |]


